X: 42354
T: Welcome Home Grainne
R: jig
M: 6/8
K: Adorian
eAA cBA|eAA f^ga|eAA c2e|dBG Bcd|eAA cBA|edc B2A|GFG gfg|dBG Bcd:|
cBA a^ga|cBA Bcd|cBA gfg|dBG Bcd|cBA a^ga|edc B2A|GFG gfg|dBG Bcd:|

